icons/circle/48/steam_icon_250900.svg

<svg xmlns="http://www.w3.org/2000/svg" viewBox="0 0 48 48">
 <defs>
  <linearGradient id="linearGradient4181" x1="24" y1="1" x2="24.498" y2="47.5" gradientUnits="userSpaceOnUse">
   <stop style="stop-color:#505050;stop-opacity:1"/>
   <stop offset="1" style="stop-color:#464646;stop-opacity:1"/>
  </linearGradient>
 </defs>
 <g>
  <path d="m 36.31 5 c 5.859 4.062 9.688 10.831 9.688 18.5 c 0 12.426 -10.07 22.5 -22.5 22.5 c -7.669 0 -14.438 -3.828 -18.5 -9.688 c 1.037 1.822 2.306 3.499 3.781 4.969 c 4.085 3.712 9.514 5.969 15.469 5.969 c 12.703 0 23 -10.298 23 -23 c 0 -5.954 -2.256 -11.384 -5.969 -15.469 c -1.469 -1.475 -3.147 -2.744 -4.969 -3.781 z m 4.969 3.781 c 3.854 4.113 6.219 9.637 6.219 15.719 c 0 12.703 -10.297 23 -23 23 c -6.081 0 -11.606 -2.364 -15.719 -6.219 c 4.16 4.144 9.883 6.719 16.219 6.719 c 12.703 0 23 -10.298 23 -23 c 0 -6.335 -2.575 -12.06 -6.719 -16.219 z" style="opacity:0.05"/>
  <path d="m 41.28 8.781 c 3.712 4.085 5.969 9.514 5.969 15.469 c 0 12.703 -10.297 23 -23 23 c -5.954 0 -11.384 -2.256 -15.469 -5.969 c 4.113 3.854 9.637 6.219 15.719 6.219 c 12.703 0 23 -10.298 23 -23 c 0 -6.081 -2.364 -11.606 -6.219 -15.719 z" style="opacity:0.1"/>
  <path d="m 31.25 2.375 c 8.615 3.154 14.75 11.417 14.75 21.13 c 0 12.426 -10.07 22.5 -22.5 22.5 c -9.708 0 -17.971 -6.135 -21.12 -14.75 a 23 23 0 0 0 44.875 -7 a 23 23 0 0 0 -16 -21.875 z" style="opacity:0.2"/>
 </g>
 <g style="fill:url(#linearGradient4181);fill-opacity:1">
  <path d="m 24 1 c 12.703 0 23 10.297 23 23 c 0 12.703 -10.297 23 -23 23 -12.703 0 -23 -10.297 -23 -23 0 -12.703 10.297 -23 23 -23 z"/>
 </g>
 <g>
  <path d="m 40.03 7.531 c 3.712 4.084 5.969 9.514 5.969 15.469 0 12.703 -10.297 23 -23 23 c -5.954 0 -11.384 -2.256 -15.469 -5.969 4.178 4.291 10.01 6.969 16.469 6.969 c 12.703 0 23 -10.298 23 -23 0 -6.462 -2.677 -12.291 -6.969 -16.469 z" style="opacity:0.1"/>
 </g>
 <g transform="matrix(1.0454545,0,0,1.0001977,-0.0909085,1.9932782)" style="fill:#000;opacity:0.1">
  <ellipse cx="24" cy="23.502" rx="11" ry="10.498" style="opacity:1;fill-opacity:1;stroke:none;fill-rule:nonzero"/>
 </g>
 <g transform="matrix(1.0454545,0,0,1.0478261,-1.0909085,-0.6260874)">
  <ellipse ry="10.498" rx="11" cy="23.502" cx="24" style="fill:#f4d7d7;opacity:1;fill-opacity:1;stroke:none;fill-rule:nonzero"/>
  <path d="m 17.381 24.605 3.31 0 0 8.926 c 0 0 -1.212 -0.441 -1.788 -0.727 -0.528 -0.261 -1.521 -0.899 -1.521 -0.899 z" style="fill:#afdde9;opacity:1;fill-opacity:1;stroke:none;fill-rule:nonzero"/>
  <g transform="matrix(1.1032047,0,0,1.1032047,-2.2535524,-0.13719532)">
   <circle cx="19.298" cy="21.01" r="2.5" style="fill:#1a1a1a;opacity:1;fill-opacity:1;stroke:none;fill-rule:nonzero"/>
   <ellipse cx="18.37" cy="20.321" rx="0.827" ry="0.869" style="fill:#f9f9f9;opacity:1;fill-opacity:1;stroke:none;fill-rule:nonzero"/>
  </g>
  <path d="m 30.622 24.599 -3.31 0 0 8.926 c 0 0 1.212 -0.441 1.788 -0.727 0.528 -0.261 1.521 -0.899 1.521 -0.899 z" style="fill:#afdde9;opacity:1;fill-opacity:1;stroke:none;fill-rule:nonzero"/>
  <g transform="matrix(1.1032047,0,0,1.1032047,7.6752899,-0.13719532)">
   <circle r="2.5" cy="21.01" cx="19.298" style="fill:#1a1a1a;opacity:1;fill-opacity:1;stroke:none;fill-rule:nonzero"/>
   <ellipse ry="0.869" rx="0.827" cy="20.321" cx="18.37" style="fill:#f9f9f9;opacity:1;fill-opacity:1;stroke:none;fill-rule:nonzero"/>
  </g>
  <path d="m 21.238 28.01 5.516 0 c 0 0 -0.48 -1.788 -1.078 -2.205 -1.037 -0.722 -2.5 -0.752 -3.519 0 -0.551 0.407 -0.919 2.205 -0.919 2.205 z" style="fill:#1a1a1a;stroke:none;fill-rule:evenodd"/>
  <path d="m 22.08 26.546 3.677 0 0.442 1.103 -4.491 0 z" style="fill:#f9f9f9;opacity:1;fill-opacity:1;stroke:none;fill-rule:nonzero"/>
 </g>
</svg>

<svg xmlns="http://www.w3.org/2000/svg" viewBox="0 0 48 48">
  <defs>
    <linearGradient id="a" x1="24" y1="1" x2="24.498" y2="47.5" gradientUnits="userSpaceOnUse">
      <stop stop-color="#505050"/>
      <stop offset="1" stop-color="#464646"/>
    </linearGradient>
  </defs>
  <path d="M36.31 5c5.859 4.062 9.688 10.831 9.688 18.5 0 12.426-10.07 22.5-22.5 22.5-7.669 0-14.438-3.828-18.5-9.688a23.24 23.24 0 0 0 3.781 4.969 22.923 22.923 0 0 0 15.469 5.969c12.703 0 23-10.298 23-23a22.92 22.92 0 0 0-5.969-15.469A23.216 23.216 0 0 0 36.31 5zm4.969 3.781A22.911 22.911 0 0 1 47.498 24.5c0 12.703-10.297 23-23 23a22.909 22.909 0 0 1-15.719-6.219C12.939 45.425 18.662 48 24.998 48c12.703 0 23-10.298 23-23 0-6.335-2.575-12.06-6.719-16.219z" opacity=".05"/>
  <path d="M41.28 8.781a22.923 22.923 0 0 1 5.969 15.469c0 12.703-10.297 23-23 23A22.92 22.92 0 0 1 8.78 41.281 22.911 22.911 0 0 0 24.499 47.5c12.703 0 23-10.298 23-23A22.909 22.909 0 0 0 41.28 8.781z" opacity=".1"/>
  <path d="M31.25 2.375C39.865 5.529 46 13.792 46 23.505c0 12.426-10.07 22.5-22.5 22.5-9.708 0-17.971-6.135-21.12-14.75a23 23 0 0 0 44.875-7 23 23 0 0 0-16-21.875z" opacity=".2"/>
  <path d="M24 1c12.703 0 23 10.297 23 23S36.703 47 24 47 1 36.703 1 24 11.297 1 24 1z" fill="url(#a)"/>
  <path d="M40.03 7.531A22.922 22.922 0 0 1 45.999 23c0 12.703-10.297 23-23 23A22.92 22.92 0 0 1 7.53 40.031C11.708 44.322 17.54 47 23.999 47c12.703 0 23-10.298 23-23 0-6.462-2.677-12.291-6.969-16.469z" opacity=".1"/>
  <g transform="matrix(1.04545 0 0 1.0002 -.09 1.993)" opacity=".1">
    <ellipse cx="24" cy="23.502" rx="11" ry="10.498"/>
  </g>
  <g transform="matrix(1.04545 0 0 1.04783 -1.09 -.626)">
    <ellipse ry="10.498" rx="11" cy="23.502" cx="24" fill="#f4d7d7"/>
    <path d="M17.381 24.605h3.31v8.926s-1.212-.441-1.788-.727c-.528-.261-1.521-.899-1.521-.899z" fill="#afdde9"/>
    <g transform="matrix(1.1032 0 0 1.1032 -2.254 -.137)">
      <circle cx="19.298" cy="21.01" r="2.5" fill="#1a1a1a"/>
      <ellipse cx="18.37" cy="20.321" rx=".827" ry=".869" fill="#f9f9f9"/>
    </g>
    <path d="M30.622 24.599h-3.31v8.926s1.212-.441 1.788-.727c.528-.261 1.521-.899 1.521-.899z" fill="#afdde9"/>
    <g transform="matrix(1.1032 0 0 1.1032 7.675 -.137)">
      <circle r="2.5" cy="21.01" cx="19.298" fill="#1a1a1a"/>
      <ellipse ry=".869" rx=".827" cy="20.321" cx="18.37" fill="#f9f9f9"/>
    </g>
    <path d="M21.238 28.01h5.516s-.48-1.788-1.078-2.205c-1.037-.722-2.5-.752-3.519 0-.551.407-.919 2.205-.919 2.205z" fill="#1a1a1a" fill-rule="evenodd"/>
    <path d="M22.08 26.546h3.677l.442 1.103h-4.491z" fill="#f9f9f9"/>
  </g>
</svg>
